X:775
T:Reel 775
M:4/4
K:Dmaj
L:1/8
dB|AD (3FED AD (3FED |ADFD BcAB|AD (3DDD ABBd||ecAc edcB:||2ec (3ABc d2|:cd|ed (3dcd fd (3dcd |ec (3cBc edcd|edcd  (3efg fd|ecec BABc (3GFE |Ad (3dcd fdcd|edcd efge|fdec dBcA|BGEG FDD|
